packages/suite-data/files/images/svg/wallet-empty.svg

<svg xmlns="http://www.w3.org/2000/svg" width="360" height="280" viewBox="0 0 360 280">
    <g fill="none" fill-rule="nonzero">
        <path fill="#FFF" d="M169 60h122.366v164.808H169z"/>
        <path fill="#A3A4A9" d="M290.458 61.023v163.721H169.184V61.023h121.274m1.092-1.092H168.092v165.905H291.55V59.931z"/>
        <path fill="#A3A4A9" d="M286.4 169a.6.6 0 0 0-.6.6v9.02c-7.604 14.096-22.762 15.363-24.862 15.47l-10.03-10.031a.6.6 0 1 0-.849.849l10.052 10.051c.874 13.342-11.868 23.663-13.386 24.84H235.6a.6.6 0 0 0-.6.6v.001a.6.6 0 0 0 .6.6h50.8a.6.6 0 0 0 .6-.6v-50.8a.6.6 0 0 0-.6-.6zm-8.386 43.863c.888 2.797-2.174 6.17-2.92 6.937h-13.998c3.26-2 9.122-6.672 9.362-14.493l7.556 7.556zm-1.3 6.937c1.029-1.22 2.524-3.357 2.652-5.585l4.561 4.56a.6.6 0 0 1-.424 1.025h-6.79zm8.061-1.874l-5.123-5.122c1.516-.587 4.485-2.02 6.147-4.708v9.406a.6.6 0 0 1-1.024.424zm-6.058-6.058l-7.7-7.699c2.879-.78 10.78-3.49 14.782-10.567v10.235c0 5.322-5.66 7.555-7.082 8.031zm7.082-30.877v9.804c-3.475 9.024-13.86 11.922-15.772 12.384l-7.974-7.975c4.076-.415 16.443-2.626 23.746-14.213zm-24.447 15.21l7.892 7.892c.464 10.292-9.545 15.197-10.652 15.706h-9.96c3.547-3.006 12.774-11.96 12.72-23.598z"/>
        <path fill="#D8D9DA" d="M290.458 61.023v9.68h-78.671l32.03 154.038H180.47V70.703h-11.286v-9.68h121.274z" opacity=".5"/>
        <path fill="#FFF" d="M288.638 62.843v160.081H171.004V62.843h117.634m1.82-1.82H169.184v163.721h121.274V61.023z"/>
        <path fill="#FFF" d="M63.645 78.882L184.008 53.89l34.631 166.79L98.276 245.67z"/>
        <path fill="#A3A4A9" d="M183.584 54.529l34.42 165.718L98.71 245.023 64.29 79.305 183.584 54.53m.847-1.293l-1.069.222L64.068 78.23 63 78.457l.222 1.07 34.42 165.718.221 1.069 1.069-.222 119.294-24.777 1.068-.222-.222-1.068-34.42-165.718-.221-1.07z"/>
        <path fill="#D8D9DA" d="M144.464 133.33c-.744-3.576-4.468-5.9-8.249-5.113-3.78.788-6.266 4.405-5.52 7.981l.435 2.093-2.834.59 3.138 15.052 10.66 2.497 8.778-6.552-3.121-14.985-2.836.592-.451-2.155zm-10.26 2.137c-.35-1.688.854-3.346 2.743-3.74 1.89-.395 3.657.647 4.004 2.335l.435 2.09-6.745 1.411-.437-2.096zm12.246 12.802l-5.242 3.91-6.37-1.491-1.884-9.044 11.61-2.419 1.886 9.044z"/>
    </g>
</svg>

<svg width="360" height="280" viewBox="0 0 360 280" fill="none" xmlns="http://www.w3.org/2000/svg">
<path d="M169 60H291.366V224.808H169V60Z" fill="white"/>
<path d="M290.458 61.023V224.744H169.184V61.023H290.458ZM291.55 59.931H168.092V225.836H291.55V59.931Z" fill="#A3A4A9"/>
<path d="M286.4 169C286.321 169 286.243 169.016 286.17 169.046C286.098 169.076 286.031 169.12 285.976 169.176C285.92 169.231 285.876 169.298 285.846 169.37C285.816 169.443 285.8 169.521 285.8 169.6V178.62C278.196 192.716 263.038 193.983 260.938 194.09L250.908 184.059C250.795 183.946 250.643 183.883 250.484 183.883C250.324 183.883 250.172 183.946 250.059 184.059C249.946 184.172 249.883 184.324 249.883 184.484C249.883 184.643 249.946 184.795 250.059 184.908L260.111 194.959C260.985 208.301 248.243 218.622 246.725 219.799H235.6C235.441 219.799 235.288 219.862 235.176 219.975C235.063 220.087 235 220.24 235 220.399V220.4C235 220.559 235.063 220.712 235.176 220.824C235.288 220.937 235.441 221 235.6 221H286.4C286.479 221 286.557 220.984 286.63 220.954C286.702 220.924 286.769 220.88 286.824 220.824C286.88 220.769 286.924 220.702 286.954 220.63C286.984 220.557 287 220.479 287 220.4V169.6C287 169.521 286.984 169.443 286.954 169.37C286.924 169.298 286.88 169.231 286.824 169.176C286.769 169.12 286.702 169.076 286.63 169.046C286.557 169.016 286.479 169 286.4 169ZM278.014 212.863C278.902 215.66 275.84 219.033 275.094 219.8H261.096C264.356 217.8 270.218 213.128 270.458 205.307L278.014 212.863ZM276.714 219.8C277.743 218.58 279.238 216.443 279.366 214.215L283.927 218.775C284.011 218.859 284.069 218.966 284.092 219.082C284.115 219.199 284.103 219.32 284.058 219.429C284.013 219.539 283.936 219.633 283.837 219.699C283.738 219.765 283.622 219.8 283.503 219.8H276.713H276.714ZM284.775 217.926L279.652 212.804C281.168 212.217 284.137 210.784 285.799 208.096V217.502C285.799 217.621 285.764 217.736 285.698 217.835C285.632 217.934 285.538 218.01 285.429 218.056C285.319 218.101 285.198 218.113 285.082 218.09C284.966 218.067 284.859 218.01 284.775 217.926ZM278.717 211.868L271.017 204.169C273.896 203.389 281.797 200.679 285.799 193.602V203.837C285.799 209.159 280.139 211.392 278.717 211.868ZM285.799 180.991V190.795C282.324 199.819 271.939 202.717 270.027 203.179L262.053 195.204C266.129 194.789 278.496 192.578 285.799 180.991ZM261.352 196.201L269.244 204.093C269.708 214.385 259.699 219.29 258.592 219.799H248.632C252.179 216.793 261.406 207.839 261.352 196.201Z" fill="#A3A4A9"/>
<path opacity="0.5" d="M290.458 61.023V70.703H211.787L243.817 224.741H180.47V70.703H169.184V61.023H290.458Z" fill="#D8D9DA"/>
<path d="M288.638 62.843V222.924H171.004V62.843H288.638ZM290.458 61.023H169.184V224.744H290.458V61.023Z" fill="white"/>
<path d="M63.645 78.882L184.008 53.89L218.639 220.68L98.276 245.67L63.645 78.882Z" fill="white"/>
<path fill-rule="evenodd" clip-rule="evenodd" d="M140.234 147.133C145.397 145.953 150.506 149.039 151.646 154.026C152.786 159.013 149.525 164.012 144.362 165.192C139.2 166.373 134.09 163.287 132.95 158.3C131.81 153.313 135.071 148.314 140.234 147.133ZM141.171 151.233C138.352 151.877 136.571 154.607 137.194 157.33C137.816 160.052 140.606 161.737 143.425 161.093C146.244 160.448 148.025 157.719 147.402 154.996C146.78 152.273 143.99 150.588 141.171 151.233ZM139.388 129.442L142.63 143.623L137.124 144.882L134.926 135.266L129.994 136.393L130.508 131.472L139.388 129.442Z" fill="#D8D9DA"/>
<path d="M183.584 54.529L218.004 220.247L98.71 245.023L64.29 79.305L183.584 54.53V54.529ZM184.431 53.237L183.362 53.459L64.068 78.23L63 78.457L63.222 79.527L97.642 245.245L97.863 246.314L98.932 246.092L218.226 221.315L219.294 221.093L219.072 220.025L184.652 54.307L184.431 53.237Z" fill="#A3A4A9"/>
</svg>
